icons/Apple-Dark.svg

<svg width="256" height="256" viewBox="0 0 256 256" fill="none" xmlns="http://www.w3.org/2000/svg">
<g clip-path="url(#clip0_33_740)">
<path d="M196 0H60C26.8629 0 0 26.8629 0 60V196C0 229.137 26.8629 256 60 256H196C229.137 256 256 229.137 256 196V60C256 26.8629 229.137 0 196 0Z" fill="#242938"/>
<path fill-rule="evenodd" clip-rule="evenodd" d="M191.072 195.009C187.802 200.396 184.532 204.435 180.588 208.185C176.164 212.129 174.914 215.591 164.718 216.939C157.505 218.286 151.253 215.591 148.848 214.534C141.634 211.167 137.882 210.11 133.555 210.11C129.323 210.11 125.764 211.168 118.646 214.438C116.434 215.591 110.471 218.189 103.161 216.843C95.6587 215.496 91.8113 212.611 89.022 210.206C83.251 205.109 78.9228 200.299 74.9792 194.721L191.072 195.009Z" fill="#00A0E2"/>
<path fill-rule="evenodd" clip-rule="evenodd" d="M58.7255 105.27C62.0919 97.6719 66.5163 92.5741 70.9407 89.0154C82.1942 79.7818 100.565 79.2047 109.029 81.4169C115.955 83.1482 120.86 87.3802 128.651 87.3802C136.826 87.3802 141.538 83.2444 147.984 81.4169C156.448 79.3009 174.915 79.9741 186.938 89.2077C190.497 91.9009 193.765 95.5558 195.593 97.5757C191.266 100.75 188.668 103.058 186.552 105.27H58.7255Z" fill="#34BE2D"/>
<path fill-rule="evenodd" clip-rule="evenodd" d="M186.553 105.27C184.533 107.482 183.091 109.599 181.455 112.58C179.533 116.043 177.223 120.756 176.646 127.873H53.0508C53.147 126.719 53.2431 125.469 53.4355 124.218C54.5897 116.62 56.4172 110.368 58.7256 105.27H186.553Z" fill="#FFB400"/>
<path fill-rule="evenodd" clip-rule="evenodd" d="M176.646 127.873C176.55 130.052 176.55 132.235 176.646 134.414C176.935 139.704 178.762 145.571 181.167 150.284L55.4553 149.995C53.724 142.397 52.7622 134.606 53.0507 127.873H176.646Z" fill="#FF7A00"/>
<path fill-rule="evenodd" clip-rule="evenodd" d="M181.166 150.284C182.15 152.325 183.342 154.259 184.724 156.055C192.996 166.635 196.555 166.635 202.999 169.906C202.52 171.058 202.135 172.118 201.653 173.08L62.7653 172.791C60.0721 166.924 57.2828 158.652 55.4553 149.996L181.166 150.284Z" fill="#F41E34"/>
<path fill-rule="evenodd" clip-rule="evenodd" d="M201.653 173.08C197.614 182.506 194.343 189.429 191.072 195.009L74.9805 194.721C71.1332 189.046 67.6706 182.793 63.7271 175.002C63.4385 174.329 63.0538 173.559 62.7653 172.791L201.653 173.08Z" fill="#A2359C"/>
<path fill-rule="evenodd" clip-rule="evenodd" d="M161.352 52.658C160.679 57.4672 158.274 63.6229 154.427 67.5664C150.289 71.9909 143.846 76.8 139.998 79.2046C137.882 80.5512 132.399 80.7435 127.88 81.2245C127.303 77.1848 127.207 73.7222 128.457 69.971C130.092 65.5466 132.21 59.1985 135.575 54.7741C139.711 49.2916 144.424 45.5405 147.021 44.1939C150.484 42.4626 156.255 39.8656 161.256 39C161.449 43.4244 162.123 48.426 161.352 52.658Z" fill="#34BE2D"/>
</g>
<defs>
<clipPath id="clip0_33_740">
<rect width="256" height="256" fill="white"/>
</clipPath>
</defs>
</svg>

<svg xmlns="http://www.w3.org/2000/svg" width="256" height="256" fill="none" viewBox="0 0 256 256"><g clip-path="url(#a)"><path fill="#242938" d="M196 0H60A60 60 0 0 0 0 60v136a60 60 0 0 0 60 60h136a60 60 0 0 0 60-60V60a60 60 0 0 0-60-60"/><path fill="#00A0E2" fill-rule="evenodd" d="M191.07 195a61 61 0 0 1-10.48 13.19c-4.43 3.94-5.68 7.4-15.87 8.75-7.22 1.35-13.47-1.35-15.87-2.4-7.22-3.37-10.97-4.43-15.3-4.43-4.23 0-7.79 1.06-14.9 4.33a24.6 24.6 0 0 1-15.49 2.4c-7.5-1.34-11.35-4.23-14.14-6.63a87 87 0 0 1-14.04-15.49z" clip-rule="evenodd"/><path fill="#34BE2D" fill-rule="evenodd" d="M58.73 105.27c3.36-7.6 7.79-12.7 12.21-16.25 11.25-9.24 29.63-9.82 38.09-7.6 6.92 1.73 11.83 5.96 19.62 5.96 8.18 0 12.89-4.14 19.33-5.96 8.47-2.12 26.94-1.45 38.96 7.79 3.56 2.7 6.82 6.35 8.65 8.37a66 66 0 0 0-9.04 7.69z" clip-rule="evenodd"/><path fill="#FFB400" fill-rule="evenodd" d="M186.55 105.27a35 35 0 0 0-5.1 7.31 36 36 0 0 0-4.8 15.3H53.05c.1-1.16.2-2.41.39-3.66 1.15-7.6 2.98-13.85 5.29-18.95z" clip-rule="evenodd"/><path fill="#FF7A00" fill-rule="evenodd" d="M176.65 127.87q-.15 3.28 0 6.54c.28 5.3 2.11 11.16 4.52 15.87L55.46 150c-1.74-7.6-2.7-15.4-2.4-22.13z" clip-rule="evenodd"/><path fill="#F41E34" fill-rule="evenodd" d="M181.17 150.28a33 33 0 0 0 3.55 5.78c8.28 10.57 11.84 10.57 18.28 13.85-.48 1.15-.87 2.2-1.35 3.17l-138.88-.29a114 114 0 0 1-7.31-22.8z" clip-rule="evenodd"/><path fill="#A2359C" fill-rule="evenodd" d="M201.65 173.08c-4.04 9.43-7.3 16.35-10.58 21.93l-116.09-.29c-3.85-5.67-7.3-11.93-11.25-19.72-.3-.67-.68-1.44-.96-2.2z" clip-rule="evenodd"/><path fill="#34BE2D" fill-rule="evenodd" d="M161.35 52.66c-.67 4.8-3.08 10.96-6.92 14.9C150.29 72 143.85 76.8 140 79.2c-2.12 1.35-7.6 1.54-12.12 2.02-.58-4.04-.67-7.5.58-11.25 1.63-4.42 3.75-10.77 7.11-15.2 4.14-5.48 8.85-9.23 11.45-10.58 3.46-1.73 9.23-4.32 14.24-5.19.19 4.42.86 9.43.1 13.66" clip-rule="evenodd"/></g><defs><clipPath id="a"><path fill="#fff" d="M0 0h256v256H0z"/></clipPath></defs></svg>
